X:153
T: I HA DAHEIM EN MAIDLI CHA, UNDS MAIDLI HAET MI LIEB
N: Z0152
O: Europa, Mitteleuropa, Deutschland, Mitteleuropa, Schweiz
R: Erzaehlung, lustige Romanze
M: 2/4
L: 1/16
K: C
G2 | A2G2F2D2 | E2G2c2
G2 | G2f2A2B2 | c6
G2 | A2G2F2D2 | E2G2c2
G2 | f3dA2B2 | c4z2
e2 | e2d2d2e2 | d2c2c2
d2 | c2B2B2B2 | d2c2c2
fe | ^c2d2d2ed | B2c2c2
ec | B2G2A2B2 | c4z2

@@@ Tune index: 9911
